X: 5815
T: Calgary Fiddlers Welcome To Shetland
R: reel
M: 4/4
K: Emajor
V:1
|:ef|"E"ge e2 fede|"A"fgag fede|"E"ge e2 fede|"E"fgag "A"f2 ef|
V:2
|:z2|e4 E2 E2|d4 D2 D2|e4 E2 E2|F4 B4|
V:1
"E"ge e2 fede|"A"fgag fede|"E"ge e2 fede|"A"fBdf "E"e2 ec:|
V:2
e4 E2 E2|d4 D2 D2|e4 E2 E2|F4 E4:|
V:1
|:"B"BegB egBg|"C"^BegB egBg|"C#"cegc egcg|"D"=degd egdg|
V:2
|:B6 B2|^B6 ^B2|c6 c2|=d6 =d2|
V:1
"A"a2 ag a2 ba|"E"ge e2 e2 ce|"B"f2 fe fbge|"B"f4 f2 ec|
V:2
f4 f4|e4 e4|d4 d4|c4 F4|
V:1
|:"B"BegB egBg|"C"^BegB egBg|"C#"cegc egcg|"D"=degd egdg|
V:2
|:B6 B2|^B6 ^B2|c6 c2|=d6 =d2|
V:1
"A"a2 ag a2 ba|"E"ge e2 e2 ce|"B"f2 fe fbge|"E"e5|
V:2
f4 e4|e4 c4|B4 D4|E5|

